src/assets/duotone/OmegaCircle.svg

<svg width="24" height="24" viewBox="0 0 24 24"  xmlns="http://www.w3.org/2000/svg">
<path opacity="0.4" d="M12 22C17.5228 22 22 17.5228 22 12C22 6.47715 17.5228 2 12 2C6.47715 2 2 6.47715 2 12C2 17.5228 6.47715 22 12 22Z" />
<path d="M17 17.25H13.9C13.6 17.25 13.33 17.08 13.21 16.8C13.09 16.52 13.14 16.21 13.34 15.99L14.96 14.2C15.63 13.45 16.01 12.5 16.01 11.52C16.01 10.52 15.6 9.58 14.85 8.87C14.1 8.16 13.06 7.75 12 7.75C10.94 7.75 9.90002 8.16 9.15002 8.87C8.40002 9.58 7.98999 10.52 7.98999 11.52C7.98999 12.5 8.35998 13.45 9.03998 14.2L10.66 15.99C10.86 16.21 10.91 16.53 10.79 16.8C10.67 17.07 10.4 17.25 10.1 17.25H7C6.59 17.25 6.25 16.91 6.25 16.5C6.25 16.09 6.59 15.75 7 15.75H8.40997L7.91998 15.21C6.99998 14.19 6.48999 12.88 6.48999 11.52C6.48999 10.13 7.08 8.76003 8.12 7.78003C9.16 6.79003 10.54 6.25 12 6.25C13.46 6.25 14.84 6.79003 15.88 7.78003C16.91 8.76003 17.51 10.13 17.51 11.52C17.51 12.87 17 14.18 16.08 15.21L15.59 15.75H17C17.41 15.75 17.75 16.09 17.75 16.5C17.75 16.91 17.41 17.25 17 17.25Z" />
</svg>

<?xml version="1.0" encoding="UTF-8"?>
<svg width="24" height="24" viewBox="0 0 24 24" xmlns="http://www.w3.org/2000/svg">
 <path d="m12 22c5.5228 0 10-4.4772 10-10 0-5.5228-4.4772-10-10-10-5.5228 0-10 4.4772-10 10 0 5.5228 4.4772 10 10 10z" opacity=".4"/>
 <path d="m17 17.25h-3.1c-0.3 0-0.57-0.17-0.69-0.45s-0.07-0.59 0.13-0.81l1.62-1.79c0.67-0.75 1.05-1.7 1.05-2.68 0-1-0.41-1.94-1.16-2.65s-1.79-1.12-2.85-1.12-2.1 0.41-2.85 1.12-1.16 1.65-1.16 2.65c0 0.98 0.36999 1.93 1.05 2.68l1.62 1.79c0.2 0.22 0.25 0.54 0.13 0.81s-0.39 0.45-0.69 0.45h-3.1c-0.41 0-0.75-0.34-0.75-0.75s0.34-0.75 0.75-0.75h1.41l-0.48999-0.54c-0.92-1.02-1.43-2.33-1.43-3.69 0-1.39 0.59001-2.76 1.63-3.74 1.04-0.99 2.42-1.53 3.88-1.53s2.84 0.54003 3.88 1.53c1.03 0.98 1.63 2.35 1.63 3.74 0 1.35-0.51 2.66-1.43 3.69l-0.49 0.54h1.41c0.41 0 0.75 0.34 0.75 0.75s-0.34 0.75-0.75 0.75z"/>
</svg>
